X:21
T: ACH ELSELEIN, LIEBES ELSELEIN MEIN
N: Z0022
O: Europa, Mitteleuropa, Deutschland
R: Sagen - Lied, Romanze
M: 3/8
L: 1/16
K: G
G2 | G3A_B2 | A4G2 | A3_Bc2 | d4
d2 | c4A2 | _B3AG2 | =F4z2 | z4
d2 | c3_BA2 | _B4G2 | =F4z2 | z4
=F2 | G3A_B2 | c2_B2A2 | G2A2_B2 | A4
G2 | =F4D2 | G4=F2 | G4z2 | z4
=F2 | G3A_B2 | c2_B2A2 | G2A2_B2 | A4
G2 | =F4D2 | G4=F2 | G4

